img/svg/star-fill.svg

<svg width="17" height="16" viewBox="0 0 17 16" fill="none" xmlns="http://www.w3.org/2000/svg">
<path d="M15.425 5.975L10.9 5.275L8.84996 0.975C8.69996 0.675 8.29996 0.675 8.14996 0.975L6.09996 5.3L1.59996 5.975C1.27496 6.025 1.14996 6.45 1.39996 6.675L4.67496 10.05L3.89996 14.775C3.84996 15.1 4.17496 15.375 4.47496 15.175L8.54996 12.95L12.6 15.175C12.875 15.325 13.225 15.075 13.15 14.775L12.375 10.05L15.65 6.675C15.85 6.45 15.75 6.025 15.425 5.975Z" fill="#F59E0B"/>
</svg>

<?xml version="1.0" encoding="utf-8"?><svg width="17" height="16" xmlns="http://www.w3.org/2000/svg" viewBox="0 0 17 16"><path d="m15.425 5.975-4.525-.7-2.05-4.3c-.15-.3-.55-.3-.7 0L6.1 5.3l-4.5.675c-.325.05-.45.475-.2.7l3.275 3.375-.775 4.725c-.05.325.275.6.575.4L8.55 12.95l4.05 2.225c.275.15.625-.1.55-.4l-.775-4.725 3.275-3.375c.2-.225.1-.65-.225-.7Z"/></svg>
